docs/svgs/pendant-long.svg

<svg viewBox="0 0 24 24" height="24px" width="24px" fill="#44739e" xmlns="http://www.w3.org/2000/svg"><title>hue:pendant-long</title><desc>Source: https://github.com/arallsopp/hass-hue-icons</desc><path d="M 20.643308,13.023904 6.6196999,17.732088 c -0.1538807,0.05153 -0.3197612,0.048 -0.4715243,-0.0092 L 3.3783237,16.676805 C 3.1912669,16.606215 3.196208,16.337986 3.3860837,16.274457 L 17.409697,11.566979 c 0.15388,-0.05223 0.319761,-0.0487 0.470818,0.0085 l 2.770558,1.046106 c 0.186351,0.07059 0.182116,0.338114 -0.0078,0.402348 M 22.83572,9.1818594 17.88048,7.3098799 c -0.151057,-0.057176 -0.316938,-0.060705 -0.470818,-0.00847 l -4.703914,1.579012 V 4.9698766 4.7722317 c 0,-0.1828215 -0.315526,-0.3310552 -0.705874,-0.3310552 -0.390349,0 -0.705875,0.1482337 -0.705875,0.3310552 V 4.9698766 9.3547697 L 1.1879947,12.746496 c -0.28799688,0.09741 -0.48211238,0.369172 -0.48211238,0.674816 v 3.26114 c 0,0.296468 0.1828215,0.561171 0.45740678,0.664934 l 4.9559457,1.871274 c 0.1510572,0.05718 0.3169377,0.06071 0.4708184,0.0092 L 22.811049,13.782014 c 0.287997,-0.09671 0.482819,-0.368467 0.482819,-0.674816 V 9.8467643 c 0,-0.2964674 -0.182822,-0.5611703 -0.458113,-0.6649339"/></svg>

<svg viewBox="0 0 24 24" height="24px" width="24px" fill="#44739e" xmlns="http://www.w3.org/2000/svg"><title>hue:pendant-long</title><desc>Source: https://github.com/arallsopp/hass-hue-icons</desc><path d="M20.64,13.02L6.62,17.73c-0.15,0.05-0.32,0.05-0.47-0.01l-2.77-1.05c-0.19-0.07-0.18-0.34,0.01-0.4l14.02-4.71 c0.15-0.05,0.32-0.05,0.47,0.01l2.77,1.05C20.84,12.69,20.83,12.96,20.64,13.02 M22.84,9.18l-4.96-1.87 c-0.15-0.06-0.32-0.06-0.47-0.01l-4.7,1.58V4.97v-0.2c0-0.18-0.32-0.33-0.71-0.33c-0.39,0-0.71,0.15-0.71,0.33v0.2v4.38L1.19,12.75 c-0.29,0.1-0.48,0.37-0.48,0.67v3.26c0,0.3,0.18,0.56,0.46,0.66l4.96,1.87c0.15,0.06,0.32,0.06,0.47,0.01l16.22-5.45 c0.29-0.1,0.48-0.37,0.48-0.67V9.85C23.29,9.55,23.11,9.29,22.84,9.18"/></svg>
